apps/statesvisited/state-images/TN.svg

<svg height="635" width="1182" xmlns="http://www.w3.org/2000/svg"><path d="m645.46132 325.14214s69.787-5.04843 73.9445-5.64236 34.1511-4.75146 34.1511-4.75146-5.9393 9.79988-7.1272 11.28471c-1.1878 1.48484-3.5636-.29696-8.018.59394-4.4545.8909-1.1879 3.26662-5.3454 7.12718-4.1576 3.86056-11.2847 6.23629-14.2544 10.98775s-3.5636 10.39382-3.5636 10.39382-16.6301 2.67269-21.6785 2.67269c-5.0485 0-22.2725 2.07876-30.8845 2.96966s-31.1815 1.48483-35.6359 2.07877c-4.4545.59393-13.3635-.59394-13.3635-.59394s-.297-11.87864 3.8605-15.44224c4.1576-3.56359 7.4242-15.44223 7.4242-15.44223l21.3816-3.26663z" fill="#f77f00" fill-rule="evenodd" opacity=".9" stroke="#000"/></svg>

<?xml version="1.0" encoding="UTF-8" standalone="no"?>
<!-- Created with Inkscape (http://www.inkscape.org/) -->
<svg
   xmlns:dc="http://purl.org/dc/elements/1.1/"
   xmlns:cc="http://web.resource.org/cc/"
   xmlns:rdf="http://www.w3.org/1999/02/22-rdf-syntax-ns#"
   xmlns:svg="http://www.w3.org/2000/svg"
   xmlns="http://www.w3.org/2000/svg"
   xmlns:xlink="http://www.w3.org/1999/xlink"
   xmlns:sodipodi="http://sodipodi.sourceforge.net/DTD/sodipodi-0.dtd"
   xmlns:inkscape="http://www.inkscape.org/namespaces/inkscape"
   id="svg1923"
   sodipodi:version="0.32"
   inkscape:version="0.44"
   width="1182"
   height="635"
   version="1.0"
   sodipodi:docbase="/Users/amyshore/Desktop"
   sodipodi:docname="usa.svg">
  <metadata
     id="metadata1928">
    <rdf:RDF>
      <cc:Work
         rdf:about="">
        <dc:format>image/svg+xml</dc:format>
        <dc:type
           rdf:resource="http://purl.org/dc/dcmitype/StillImage" />
      </cc:Work>
    </rdf:RDF>
  </metadata>
  <defs
     id="defs1926" />
  <sodipodi:namedview
     inkscape:window-height="752"
     inkscape:window-width="1280"
     inkscape:pageshadow="2"
     inkscape:pageopacity="0.0"
     guidetolerance="10.0"
     gridtolerance="10.0"
     objecttolerance="10.0"
     borderopacity="1.0"
     bordercolor="#666666"
     pagecolor="#ffffff"
     id="base"
     inkscape:zoom="0.59527559"
     inkscape:cx="775.234"
     inkscape:cy="319.32597"
     inkscape:window-x="0"
     inkscape:window-y="22"
     inkscape:current-layer="layer2" />
  <g
     inkscape:groupmode="layer"
     id="layer1"
     inkscape:label="bg"
     style="opacity:1;display:none"
     sodipodi:insensitive="true">
    <image
       xlink:href="ElectoralCollege1996-Large.png"
       sodipodi:absref="/Users/amyshore/Desktop/ElectoralCollege1996-Large.png"
       width="1182"
       height="635"
       id="image1930"
       x="-1.3571358"
       y="1.6798911" />
  </g>
  <g
     inkscape:groupmode="layer"
     id="layer2"
     inkscape:label="vector"
     style="opacity:0.9;display:inline"> <path style="fill:#f77f00;fill-opacity:1;fill-rule:evenodd;stroke:black;stroke-width:1px;stroke-linecap:butt;stroke-linejoin:miter;stroke-opacity:1" d="M 645.46132,325.14214 C 645.46132,325.14214 715.24832,320.09371 719.40582,319.49978 C 723.56332,318.90585 753.55692,314.74832 753.55692,314.74832 C 753.55692,314.74832 747.61762,324.5482 746.42972,326.03303 C 745.24192,327.51787 742.86612,325.73607 738.41172,326.62697 C 733.95722,327.51787 737.22382,329.89359 733.06632,333.75415 C 728.90872,337.61471 721.78162,339.99044 718.81192,344.7419 C 715.84222,349.49336 715.24832,355.13572 715.24832,355.13572 C 715.24832,355.13572 698.61822,357.80841 693.56982,357.80841 C 688.52132,357.80841 671.29732,359.88717 662.68532,360.77807 C 654.07332,361.66897 631.50382,362.2629 627.04942,362.85684 C 622.59492,363.45077 613.68592,362.2629 613.68592,362.2629 C 613.68592,362.2629 613.38892,350.38426 617.54642,346.82066 C 621.70402,343.25707 624.97062,331.37843 624.97062,331.37843 L 646.35222,328.1118 L 645.46132,325.14214 z " id="path12608" />   </g>
</svg>
